wp-content/plugins/the-events-calendar/common/src/resources/images/icons/recurring-events.svg

<svg width="20px" height="20px" viewBox="0 0 20 20" version="1.1" xmlns="http://www.w3.org/2000/svg" xmlns:xlink="http://www.w3.org/1999/xlink">
    <path d="M13.3333333,3.82608696 C13.3333333,3.89130435 13.3333333,3.95652174 13.3135802,4 C13.3135802,4.02173913 13.2938272,4.06521739 13.2938272,4.08695652 C13.254321,4.23913043 13.1753086,4.36956522 13.0962963,4.45652174 L10.4493827,7.36956522 C10.291358,7.54347826 10.0740741,7.63043478 9.85679012,7.63043478 C9.63950617,7.63043478 9.42222222,7.54347826 9.26419753,7.36956522 C8.94814815,7.02173913 8.94814815,6.43478261 9.26419753,6.06521739 L10.4888889,4.7173913 L6.30123457,4.7173913 C3.75308642,4.7173913 1.65925926,7 1.65925926,9.82608696 C1.65925926,11.1956522 2.13333333,12.4782609 3.02222222,13.4347826 C3.3382716,13.7826087 3.3382716,14.3695652 3.02222222,14.7391304 C2.86419753,14.9130435 2.64691358,15 2.42962963,15 C2.21234568,15 1.99506173,14.9130435 1.83703704,14.7391304 C0.651851852,13.4347826 0,11.6956522 0,9.84782609 C7.01770603e-16,6.02173913 2.82469136,2.91304348 6.30123457,2.91304348 L10.508642,2.91304348 L9.28395062,1.56521739 C8.96790123,1.2173913 8.96790123,0.630434783 9.28395062,0.260869565 C9.6,-0.0869565217 10.1333333,-0.0869565217 10.4691358,0.260869565 L13.1160494,3.17391304 C13.2148148,3.2826087 13.2740741,3.41304348 13.3135802,3.54347826 C13.3135802,3.56521739 13.3333333,3.60869565 13.3333333,3.63043478 C13.3333333,3.69565217 13.3333333,3.76086957 13.3333333,3.82608696 Z"></path>
    <path d="M20,10.1521739 C20,13.9782609 17.1753086,17.0869565 13.6987654,17.0869565 L9.49135802,17.0869565 L10.7160494,18.4347826 C11.0518519,18.7826087 11.0518519,19.3695652 10.7160494,19.7391304 C10.5580247,19.9130435 10.3407407,20 10.1234568,20 C9.90617284,20 9.70864198,19.9130435 9.5308642,19.7391304 L6.9037037,16.8043478 C6.80493827,16.6956522 6.74567901,16.5652174 6.70617284,16.4347826 C6.70617284,16.4130435 6.68641975,16.3695652 6.68641975,16.3478261 C6.66666667,16.2826087 6.66666667,16.2391304 6.66666667,16.173913 C6.66666667,16.1086957 6.66666667,16.0434783 6.68641975,16 C6.68641975,15.9782609 6.70617284,15.9347826 6.70617284,15.9130435 C6.74567901,15.7608696 6.82469136,15.6304348 6.9037037,15.5434783 L9.55061728,12.6304348 C9.86666667,12.2826087 10.4,12.2826087 10.7358025,12.6304348 C11.0716049,12.9782609 11.0716049,13.5652174 10.7358025,13.9347826 L9.51111111,15.2826087 L13.7185185,15.2826087 C16.2666667,15.2826087 18.3604938,13 18.3604938,10.173913 C18.3604938,8.80434783 17.8864198,7.52173913 16.9975309,6.56521739 C16.6617284,6.19565217 16.6617284,5.63043478 16.9975309,5.26086957 C17.3135802,4.91304348 17.8469136,4.91304348 18.182716,5.26086957 C19.3481481,6.54347826 20,8.2826087 20,10.1521739 Z"></path>
</svg>

<svg width="20" height="20" xmlns="http://www.w3.org/2000/svg"><path d="M13.333 3.826c0 .065 0 .13-.02.174 0 .022-.02.065-.02.087a.9.9 0 0 1-.197.37L10.45 7.37a.797.797 0 0 1-.592.26.797.797 0 0 1-.593-.26c-.316-.348-.316-.935 0-1.305l1.225-1.348H6.3C3.753 4.717 1.66 7 1.66 9.827c0 1.369.474 2.651 1.363 3.608.316.348.316.935 0 1.304A.797.797 0 0 1 2.43 15a.797.797 0 0 1-.593-.26C.652 13.434 0 11.695 0 9.847c0-3.826 2.825-6.935 6.301-6.935h4.208L9.284 1.565c-.316-.348-.316-.935 0-1.304.316-.348.85-.348 1.185 0l2.647 2.913c.099.109.158.239.198.37 0 .021.02.065.02.086v.196zM20 10.152c0 3.826-2.825 6.935-6.301 6.935H9.49l1.225 1.348c.336.348.336.935 0 1.304a.797.797 0 0 1-.593.261.83.83 0 0 1-.592-.26l-2.627-2.936a.948.948 0 0 1-.198-.37c0-.021-.02-.064-.02-.086-.02-.065-.02-.109-.02-.174 0-.065 0-.13.02-.174 0-.022.02-.065.02-.087a.9.9 0 0 1 .198-.37L9.55 12.63c.316-.347.849-.347 1.185 0 .336.348.336.935 0 1.305L9.51 15.283h4.208c2.548 0 4.641-2.283 4.641-5.11 0-1.369-.474-2.651-1.362-3.608a.97.97 0 0 1 0-1.304c.316-.348.849-.348 1.185 0C19.348 6.543 20 8.283 20 10.152z"/></svg>
